X:1
T:Jesus Crucified
T:adapted from St. Peter's Sodality Hymnbook, 1872
T:Fr. Frederick Faber
T: 5. O break, O break, hard heart of mine! Thy weak self-love and guilty pride His Pilate and His Judas were: --- Jesus, our Love, is crucified! Come, take thy stand beneath the Cross, And let the Blood from out that Side Fall gently on thee drop by drop; Jesus, our Love, is crucified! 6. A broken heart, a found of tears, Ask, and they will not be denied; A broken heart love's cradle is; Jesus, our Love, is crucified! O Love of God! O Sin of Man! In this dread act your strength is tried; And victory remains with love, For He, our Love, is crucified! 
T:Public Domain www.TraditionalCatholicLiving.com
T:Public Domain www.TraditionalCatholicLiving.com
Z:Public Domain
Z:www.TraditionalCatholicLiving.com
%%score { ( 1 2 ) | ( 3 4 ) }
L:1/8
M:4/4
K:Ab
V:1 treble nm="Piano" snm="Pno."
V:2 treble 
V:3 bass 
V:4 bass 
V:1
 (E2 | A3) A G2 A2 | B3 G E2 (E2 | A2) A2 d2 c2 | (B2 A2) !fermata!B2 (E2 | c3) c d2 c2 | %6
w: ||||||
w: |come and mourn with|me a- while, See|Ma- ry calls us|to her side; O|come and let us|
 B2 A2 !breath!G2 F2 | !breath!!tenuto!E3 E !breath!!tenuto!E3 (E | F2) G2 !fermata!A2 GA | %9
w: |||
w: mourn with her, Je-|sus, our love, is|cru- ci- fied! Have *|
 B3 B dcBA | B6 E2 | B3 B dcBA | B6 E2 | c3 c dcBA | (A4 !breath!F2) F2 | %15
w: ||||||
w: we no tears to shed for|Him, While|sol- diers scoff and Jews de-|ride? Ah!|look how pa- tient- ly He|hangs,- * Je-|
 !breath!E3 E !breath!E3 (E | F2) G2 A4 |] %17
w: ||
w: sus, our love, is|cru- ci- fied!|
V:2
 E2 | C3 C D2 C2 | D3 D D2 D2 | C2 E2 B2 A2 | G2 F2 G2 E2 | A3 A B2 A2 | G2 F2 E2 D2 | C3 C B,3 D | %8
w: ||||||||
w: O||||||||
w: How|fast His Hands and|Feet are nail'd; His|bless- ed Tongue with|thirst is tied, His|fail- ing Eyes are|blind with blood, Je-|sus, our love, is|
w: Seven|times He spoke seven|words of love, And|all three hours His|si- lence cried For|mer- cy on the|souls of men, Je-|sus, our love, is|
w: Found|guilt- y of ex-|cess of love, It|was thine own sweet|will that tied Thee|tight- er far than|help- less nails; Je-|sus, our love, is|
 D2 D2 C2 EF | G3 G BAGF | G6 E2 | G3 G BAGF | G6 E2 | E3 E FEDC | F4 D2 D2 | C3 C D3 D | %16
w: ||||||||
w: ||||||||
w: cru- ci- fied! His *|mo- ther can- not reach His|Face, She|stands in help- less- ness be-|side, Her|heart is mar- tyr'd with her|Son's,- * Je-|sus, our love, is|
w: cru- ci- fied! What *|was Thy crime, my dear- est|Lord? By|earth, by heav'n Thou hast been|tried, And|guilt- y found of too much|love,- * Je-|sus, our love, is|
w: cru- ci- fied! Death *|came, and Je- sus meek- ly|bowed, His|fail- ing Eyes He strove to|guide With|mind- ful love to Ma- ry's|face;- * Je-|sus, our love, is|
 D2 D2 C4 |] %17
w: |
w: |
w: cru- ci- fied!|
w: cru- ci- fied!|
w: cru- ci- fied!|
V:3
 E,2 | A,3 A, B,2 A,2 | G,3 B, G,2 G,2 | A,2 C2 E2 E2 | E2 B,2 B,2 G,2 | A,3 E E2 E2 | %6
 D2 D2 A,2 A,2 | A,3 A, G,3 G, | A,2 B,2 A,2 B,2 | B,3 B, EEEB, | B,6 G,2 | B,3 B, EEEE | E6 G,2 | %13
 A,3 A, A,A,G,A, | A,6 A,2 | A,3 A, G,3 G, | A,2 B,2 A,4 |] %17
V:4
 E,2 | A,,3 A,, E,2 A,,2 | E,3 E, E,2 E,2 | A,,2 A,2 G,2 A,2 | E,2 B,,2 E,2 E,2 | A,,3 A, G,2 A,2 | %6
 D,2 D,2 D,2 D,2 | E,3 E, E,3 E, | E,2 E,2 A,,2 E,2 | E,3 E, G,A,E,E, | E,6 E,2 | E,3 E, G,A,E,E, | %12
 E,6 E,2 | A,,3 A,, A,,A,,B,,C, | D,6 D,2 | E,3 E, E,3 E, | E,2 E,2 A,,4 |] %17

